svg/material-icons/open_in_new_off/materialicons/24px.svg

<svg xmlns="http://www.w3.org/2000/svg" width="24" height="24" viewBox="0 0 24 24"><path d="M16.79 5.8 14 3h7v7l-2.79-2.8-4.09 4.09-1.41-1.41 4.08-4.08zM19 12v4.17l2 2V12h-2zm.78 10.61L18.17 21H5a2 2 0 0 1-2-2V5.83L1.39 4.22 2.8 2.81l18.38 18.38-1.4 1.42zM16.17 19l-4.88-4.88-1.59 1.59-1.41-1.41 1.59-1.59L5 7.83V19h11.17zM7.83 5H12V3H5.83l2 2z"/></svg>

<svg xmlns="http://www.w3.org/2000/svg" enable-background="new 0 0 24 24" height="24" viewBox="0 0 24 24" width="24"><rect fill="none" height="24" width="24"/><path d="M16.79,5.8L14,3h7v7l-2.79-2.8l-4.09,4.09l-1.41-1.41L16.79,5.8z M19,12v4.17l2,2V12H19z M19.78,22.61L18.17,21H5 c-1.11,0-2-0.9-2-2V5.83L1.39,4.22l1.41-1.41l18.38,18.38L19.78,22.61z M16.17,19l-4.88-4.88L9.7,15.71L8.29,14.3l1.59-1.59L5,7.83 V19H16.17z M7.83,5H12V3H5.83L7.83,5z"/></svg>
